X:284
T:Paddy Fay
Z: id:dc-hornpipe-9
M:C|
L:1/8
K:D Major
AG|FDFA dfaf|gfed BAGB|AFF2 dFF2|EDEF EDB,D|FDAD BDAD|!
FAdA FAdA|B2AF GFED|FAAB cAFA|B2Bd e2ed|!
cdec dcBc|(3def gfed|B2AF F2 (3dfd|ed^ce a2|]!
fd|gabg egcg|afge fded|cdeg fdec|defd ecde|!
fddf egfe|dfed fgaf|gfed Bcd|]!